X: 1
T: When you're Smiling
M: 4/4
L: 1/4
K: C
EG|"C"c2c2-|c2EG|B2B2-|B2G2|"G7"A2A2|A2G2|"Dm7"F4-|F2FA|
|d2d2-|d2FA|"G7"c2c2-|c2A2|B2B2|B2A2|"C"G4-|G^FGA
||"C7"_B2B2-|_B2d2|"F"dcBc-| c^GAB|"D7"c2c2-|c2e2|"G7"ed^cd-|d2EG|
|"C"c2c2-|ccBc|"A7"e2e2-|e2A2|"Dm7"f2f2|"G7"e2e2|"C"c4-|c2z2|]
